X: 4
T: Milliner's Daughter, The
Z: crannog
S: https://thesession.org/tunes/1409#setting14783
R: reel
M: 4/4
L: 1/8
K: Gmaj
|:G2BG DGBG|A2 (3efg fdcA| G2BG DGAB| cAFG AGGF |!G2BG DGBG|A2 (3efg fdcA | GB ~B2 dB ~B2 |1 cAFG AGGF:|2 cAFG AGGB|!:dg~g2 dg~g2|df~f2 df~f2|dggf gagf|d^cde fd=cA|!dg~g2 bgaf|d^cde f2 fg|afge fde^c|d2 eg fd=cA:||!|"End"d2 eg fd=cA|G4 z4||!
